!!!!SEGMENT: pl-wn--mus-iii-72-534--001-001_zarebski-juliusz--etrennes-op-27-marche.krn
!!!cenid: 18xx:3549
!!!COM: Zarębski, Juliusz
!!!COM-rismID: pe30020631
!!!CDT:
!!!CNT:
!!!OTL: Etrennes op. 27
!!!OMV: 001
!!!PDT:
!!!AGN:
!!!SMS-siglum: PL-Wn
!!!SMS-shelfmark: Mus.III.72.534
!!!SMS-shelfwork: 001-001 W
!!!SMS-variant:
!!!SMS-altvar:
!!!NIFC-rismSourceID:
!!!NIFC-islandoraID:
!!!URL-pdf-islandora:
!!!URL-scan: https://polona.pl/item/etrennes-six-morceaux-d-execution-facile-pour-piano-oeuvre-27,MTA4MzU2NzI5/18/#info:metadata @EN{Scan on Polona} @PL{Skany w portalu Polona}
!!!ONB-nifc:
!!!AIN: 2 piano
!!!key: D
**kern	**kern	**dynam
*part2	*part1	*part1
*staff2	*staff1	*
*I"Piano	*I"Piano	*
*I'pf	*I'pf	*
*ICklav	*ICklav	*
*Ipiano	*Ipiano	*
*clefF4	*clefG2	*
*D:	*D:	*
*k[f#c#]	*k[f#c#]	*
*M2/2	*M2/2	*
*met(c|)	*met(c|)	*
=1	=1	=1
*MM160	*MM160	*
!	!LO:TX:a:B:t=Allegro vivace. ([half]=80.)	!
2DD/ 2D	4r	p
.	2A/ 2d 2f#	.
2DD/ 2D	.	.
.	4A/ 4d [4f#	.
=2	=2	=2
*^	*^	*
!	!	!LO:TX:t=P:problem= glissando do 4A	!	!
4D/	2GG\	8.f#/L]	2.B^\	.
.	.	16f#/Jk	.	.
4C#/	.	8.f#/L	.	.
.	.	16e/Jk	.	.
4D/	4FF#\	8.f#/L	.	.
.	.	16g/Jk	.	.
4A/	4r	[4a/	4r	.
=3	=3	=3	=3	=3
!	!	!LO:TX:t=P:problem= glissando do 4B	!	!
4E/	2AA\	8.a/L]	2.cn^\	<
.	.	16g/Jk	.	.
4D#X/	.	8.g/L	.	.
.	.	16f#/Jk	.	.
4E/	4GG\	8.g/L	.	.
.	.	16a/Jk	.	.
4B/	4r	8.b/L	4r	.
.	.	16cc#/Jk	.	.
*v	*v	*	*	*
*	*v	*v	*
=4	=4	=4
4r	(4dd\	[ >
4G#X\ 4d 4fn	8.cc#\L	.
.	16b\Jk	.
(4Gn\ 4A 4e	[2a/)	]]
4c#X\)	.	.
!LO:LB:g=original	!	!
=5	=5	=5
4F#'\ 4A 4d	(8.a/L]	.
.	16a/Jk	.
4A^\	8.dd\L	.
.	16cc#\Jk	.
4G'\ 4A 4e	8.ee\L	.
.	16b\Jk	.
4A^\	[4cc#\)	.
=6	=6	=6
4F#'\ 4A 4d	(8.cc#\L]	.
.	16a\Jk	.
4A^\	8.dd\L	.
.	16cc#\Jk	.
4G'\ 4A 4e	8.ee\L	.
.	16b\Jk	.
4A^\	[4cc#\)	.
=7	=7	=7
!	!	!LO:DY:a
(4F#\ 4A 4d	(8.cc#\L]	<
.	16a\Jk	.
8.c#\L	8.cc#\L	.
16d\Jk)	16dd\Jk)	.
(8.d\L	(8.dd/L	.
16F#\K	16f#/Jk	.
8.A\	8.a/L	.
16B\Jk)	16b/Jk)	[[
=8	=8	=8
!	!	!LO:DY:a
(4B\	(4b/	>
12A\L	12a/L	.
12B\	12b/	.
12A\J)	12a/J)	.
4G'\	4g'/	.
4BB'\ 4A	4B'/ 4d#X 4f#	]]
!LO:LB:g=original	!	!
=9	=9	=9
2EE/ 2E	4r	.
.	2B/ 2e 2g	.
2EE/ 2E	.	.
.	4B/ 4e [4g	.
=10	=10	=10
*^	*^	*
!	!	!LO:TX:t=P:problem= glissando do 4B	!	!
4E/	2AA\	8.g/L]	2.cn\	.
.	.	16g/Jk	.	.
4D#X/	.	8.g/L	.	.
.	.	16f#/Jk	.	.
4E/	2GG\	8.g/L	.	.
.	.	16a/Jk	.	.
4B/	.	[4b/	4r	.
=11	=11	=11	=11	=11
!	!	!	!	!LO:HP:t=cresc.
4G/	2Cn\	8.b/L]	2d\	<
.	.	16a/Jk	.	.
4F#/	.	8.a/L	.	.
.	.	16a/Jk	.	.
4G/	4BB\	4dd^/	4d\	.
4r	4ryy	8.cc#/L	4r	.
.	.	16b/Jk	.	.
*v	*v	*	*	*
*	*v	*v	*
=12	=12	=12
4C#X\ 4G	8.e/L 8.b	[
.	16a/Jk	.
8.c#\L	8.cc#\L	.
16e\Jk	16ee\Jk	.
2A\ 2c# 2g	4a^\ 4cc# 4gg	.
.	8.ff#\L	.
.	16ee\Jk	.
*clefG2	*	*
!LO:LB:g=original	!	!
=13	=13	=13
4d/ 4f# 4a	4dd\ [4aa	f
4f#/ 4a	8.aa\L]	.
.	16dd\Jk	.
4g/ 4a	[4cc#\	.
4e/ 4g 4a	8.cc#\L]	.
.	16bb\Jk	.
=14	=14	=14
4d/ 4f# 4a	4dd\ [4aa	.
4f#/ 4a	8.aa\L]	.
.	16dd\Jk	.
4g/ 4a	[4cc#\	.
4e/ 4g 4a	8.cc#\L]	.
.	16bb\Jk	.
=15	=15	=15
4f#/ 4a	4dd\ 4aa	.
4g/ 4b	2dd^\ 2ddd	.
4f#/ 4a	.	.
4e/ 4g	[4a^\ [4aa	.
*clefF4	*	*
=16	=16	=16
4d\ 4f#	4a\] 4aa]	.
4c#\ 4e	2f#^\ 2ff#	.
4B\ 4d	.	.
4A\ 4c#	[4d/ [4dd	.
=17	=17	=17
*^	*^	*
4B\	4G\	4dd/]	4d/]	.
2A/	4F#\	2dd/	2d/	.
.	4Fn\	.	.	.
!	!	!LO:TX:t=P:problem=klamra łukowa	!	!
[4B/	[4E\	20dd/LL	4g#X\	.
.	.	20ee/	.	.
.	.	20dd/	.	.
.	.	20cc#/	.	.
.	.	20dd/JJ	.	.
*v	*v	*	*	*
*	*v	*v	*
!LO:LB:g=original	!	!
=18	=18	=18
4E\] 4B]	(4ff#\	.
2A\ [2e	2gn/ 2b	.
4A#X\ 4e]	4cc#\	.
=19	=19	=19
*^	*^	*
!	!	!	!	!LO:HP:t=dim.
4d\	4B\	4dd/)	4f#/	.
2D/	4BB\	2d/	2F#/	>
.	4AA\	.	.	.
[4D/	4GG\	20d/LL	4d\	.
.	.	20e/	.	.
.	.	20d/	.	.
.	.	20c#/	.	.
.	.	20d/JJ	.	.
*v	*v	*	*	*
*	*v	*v	*
=20	=20	=20
4FF#/ 4D]	4A/ 4a	]
2FFn/ 2D	2G#X/ 2B	.
4EE/ 4AA	4Gn/ 4c#	.
=21	=21	=21
*^	*	*
4D/	4DD/	4F#/ 4d	.
8.D/L	4ryy	8.d/L	>
16D/Jk	.	16d/Jk	.
[2D^/	4r	[2d^/	.
.	4Cn\	.	.
=22	=22	=22	=22
4D/]	2.BB-X\	4d/]	.
8.D/L	.	8.d/L	.
16D/Jk	.	16d/Jk	.
2D/	.	2d/	]]
.	4AA\	.	.
*v	*v	*	*
!LO:LB:g=original	!	!
=23||	=23||	=23||
*k[b-e-]	*k[b-e-]	*
*^	*^	*
4r	2.GG\	(2.B-/ 2.g	4r	p
8.D/L	.	.	8.d\L	.
16D/Jk	.	.	16d\Jk	.
2D/	.	.	2d\	.
.	4DD\	4A/) 4f#X	.	.
=24	=24	=24	=24	=24
4r	2.GG\	(2.G/ 2.en	4r	.
8.D/L	.	.	8.d\L	.
16D/Jk	.	.	16d\Jk	.
2D/	.	.	2d\	.
.	4DD\	4A/) 4f#X	.	.
=25	=25	=25	=25	=25
4r	2.GG\	(2.B-/ 2.g	4r	.
8.D/L	.	.	8.d\L	<
16D/Jk	.	.	16d\Jk	.
2D/	.	.	2d\	.
.	4DD\	4A/) 4f#X	.	.
=26	=26	=26	=26	=26
4r	2.GG\	(2.B-/ 2.g	4r	.
8.D/L	.	.	8.d\L	.
16D/Jk	.	.	16d\Jk	.
2D/	.	.	2d\	[
.	4DD\	4f#X/) 4a	.	.
*v	*v	*	*	*
*	*v	*v	*
!LO:LB:g=original	!	!
=27	=27	=27
4GG/ 4G	4r	<
4G\ 4B-	4d/ 4g 4b-	.
4DD/ 4D	4r	.
4D\ 4F#X 4A	4d/ 4f#X 4a	[[
=28	=28	=28
4GG/ 4G	4r	<
8.G\L 8.B-	8.g\L 8.b-	.
16A\Jk 16c	16a\Jk 16cc	.
4B-'\ 4d	4b-'\ 4dd	.
4c'\ 4e-	4cc'\ 4ee-	[[
=29	=29	=29
*^	*^	*
(2.A/ 2.c	4r	(2.a/ 2.cc	4r	f
.	8.Fn\L	.	8.fn\L	.
.	16F\Jk	.	16f\Jk	.
.	2F\	.	2f\	.
4B-/ 4d	.	4b-/ 4dd	.	.
=30	=30	=30	=30	=30
1A) 1c	4r	1a) 1cc	4r	>
.	8.F\L	.	8.f\L	.
.	16F\Jk	.	16f\Jk	.
.	2F\	.	2f\	.
!LO:LB:g=original	!	!	!	!
=31	=31	=31	=31	=31
4r	2.BB-\	(2.d-X/ 2.b-	4r	] p
8.F/L	.	.	8.f\L	.
16F/Jk	.	.	16f\Jk	.
2F/	.	.	2f\	.
.	4FF\	4c/) 4a	.	.
=32	=32	=32	=32	=32
4r	2.BB-\	(2.B-/ 2.g	4r	.
8.F/L	.	.	8.f\L	.
16F/Jk	.	.	16f\Jk	.
2F/	.	.	2f\	.
.	4FF\	4c/) 4a	.	.
=33	=33	=33	=33	=33
4r	2.BB-\	(2.d-X/ 2.b-	4r	.
8.F/L	.	.	8.f\L	.
16F/Jk	.	.	16f\Jk	.
2F/	.	.	2f\	.
.	4FF\	4c/) 4a	.	.
=34	=34	=34	=34	=34
4r	2.BB-\	(2.d-X/ 2.b-	4r	.
8.F/L	.	.	8.f\L	.
16F/Jk	.	.	16f\Jk	.
2F/	.	.	2f\	.
.	4FF\	4a/) 4cc	.	.
*v	*v	*	*	*
*	*v	*v	*
!LO:LB:g=original	!	!
=35	=35	=35
!	!LO:TX:b:t=marcato	!
4BB-\ 4B-	4r	.
4B-\ 4d-X	4f/ 4b- 4dd-X	<
4FF/ 4F	4r	.
4A\ 4c	4f/ 4a 4cc	.
=36	=36	=36
4BB-\ 4B-	4r	.
8.B-\L 8.d-X	8.b-\L 8.dd-X	.
16c\Jk 16e-	16cc\Jk 16ee-	.
4d-\ 4f	4dd-\ 4ff	.
4e-\ 4g-X	4ee-\ 4gg-X	[[
=37	=37	=37
*^	*^	*
(2.c/ 2.e-	4r	(2.cc/ 2.ee-	4r	f >
.	8.A-X\L	.	8.a-X\L	.
.	16A-\Jk	.	16a-\Jk	.
.	2A-\	.	2a-\	.
4d-X/ 4f	.	4dd-X/ 4ff	.	.
=38	=38	=38	=38	=38
1c) 1e-	4r	1cc) 1ee-	4r	.
.	8.A-X\L	.	8.a-X\L	.
.	16A-\Jk	.	16a-\Jk	.
.	2A-\	.	2a-\	]
!LO:LB:g=original	!	!	!	!
=39	=39	=39	=39	=39
(2.c#X/ 2.en	4r	(2.cc#X/ 2.een	4r	p
.	8.G#X\L	.	8.g#X\L	<
.	16G#\Jk	.	16g#\Jk	.
.	2G#\	.	2g#\	.
4d#X/ 4f#X	.	4dd#X/ 4ff#X	.	.
=40	=40	=40	=40	=40
2.c#X/) 2.en	4r	2.cc#X/) 2.een	4r	.
.	8.G#X\L	.	8.g#X\L	.
.	16G#\Jk	.	16g#\Jk	.
.	4G#\	.	4g#\	.
4c#^\ 4e	4G#\	4cc#^\ 4ee	4g#\	[
*v	*v	*	*	*
*	*v	*v	*
=41	=41	=41
4.A^\ 4.c#X 4.en	4.a^\ 4.aa	f
8e\	8een\	.
8c#\L	8cc#X\L	.
8A\	8a\	.
8.c#\	8.cc#\	.
16f#X\Jk	16ff#X\Jk	.
=42	=42	=42
4f#X^\	4ff#X^<\	.
4d^\ 4en	4g#X^</ 4bn	.
4c#X^\ 4e	4g#^</ 4cc#X	.
4Bn^\ 4e	4g#^</ 4dd	.
!LO:LB:g=original	!	!
=43	=43	=43
4c#X^\ 4en	4a^\ 4een	.
[4a^\	[4aa^\	.
8a\L]	8aa\L]	.
8g#X\	8gg#X\	.
8.a\	8.aa\	.
16f#X\Jk	16ff#X\Jk	.
=44	=44	=44
4f#X\	4ff#X\	.
4d^\ 4en	4g#X^</ 4bn	.
4c#X^\ 4e	4g#^</ 4cc#X	.
4Bn^\ 4e	4g#^</ 4dd	.
=45	=45	=45
2c#X^\ 2en	2a^\ 2een	<
2cn^\ 2e-X 2f	2a^\ 2ffn	[[
=46	=46	=46
4.d-X^\ 4.f	4.b-X^\ 4.ff	.
8c\ 8e-	8cc\ 8ee-X	.
4B-'\ 4d-	4b-'\ 4dd-X	.
4F'\ 4c	4f'/ 4cc	.
!LO:LB:g=original	!	!
=47	=47	=47
[4G-X^\ [4B-	[4g-X^/ [4b-	.
8.G-\L] 8.B-]	8.g-/L] 8.b-]	>
16F\Jk	16f/Jk	.
4F'\	4f'/	.
4E-'\	4e-'/	.
=48	=48	=48
2D\	2d/	.
2DD/ [2D	2c/ 2f#X 2a	]]
=49	=49	=49
*^	*^	*
4D/]	2.GG\	(2.B-/ 2.g	4r	p
8.D/L	.	.	8.d\L	.
16D/Jk	.	.	16d\Jk	.
2D/	.	.	2d\	.
.	4DD\	4A/) 4f#X	.	.
=50	=50	=50	=50	=50
4r	2.GG\	(2.G/ 2.en	4r	.
8.D/L	.	.	8.d\L	.
16D/Jk	.	.	16d\Jk	.
2D/	.	.	2d\	.
.	4DD\	4A/) 4f#X	.	.
=51	=51	=51	=51	=51
4r	2.GG\	(2.B-/ 2.g	4r	<
8.D/L	.	.	8.d\L	.
16D/Jk	.	.	16d\Jk	.
2D/	.	.	2d\	.
.	4DD\	4c/) 4f#X 4a	.	.
!LO:LB:g=original	!	!	!	!
=52	=52	=52	=52	=52
4r	2.GG\	2.g/ 2.b-	4d\	.
8.D/L	.	.	8.d\L	.
16D/Jk	.	.	16d\Jk	.
4D/	.	.	4d\	.
4D/	4DD/	4ff#X\	4a\ 4cc	.
*v	*v	*	*	*
*	*v	*v	*
=53	=53	=53
4GG/ 4G	4r	[ f
4r	4b-\ 4dd 4gg	.
4DD/ 4D	4r	.
4r	4a\ 4dd 4ffn	.
=54	=54	=54
4GG/ 4G	4r	.
4r	4g\ 4b- 4ee-	.
4DD/ 4D	4r	.
4r	4f/ 4b- 4dd	.
=55	=55	=55
4GG/ 4G	4r	.
4r	4e-/ 4g 4cc	>
4DD/ 4D	4r	.
4r	4d/ 4g 4b-	.
=56	=56	=56
4CC/ 4C	4r	.
4r	4B-/ 4e- 4a	.
4CC#X/ 4C#X	4r	.
4r	4B-/ 4en 4g	]]
!LO:LB:g=original	!	!
=57||	=57||	=57||
*k[f#c#]	*k[f#c#]	*
2DD/ 2D	4r	p
.	2A/ 2d 2f#	.
2DD/ 2D	.	.
.	4A/ 4d [4f#	.
=58	=58	=58
*^	*^	*
!	!	!LO:TX:t=P:problem= glissando do 4A	!	!
4D/	2GG\	8.f#/L]	2.B\	.
.	.	16f#/Jk	.	.
4C#/	.	8.f#/L	.	.
.	.	16e/Jk	.	.
4D/	4FF#\	8.f#/L	.	.
.	.	16g/Jk	.	.
4A/	4r	[4a/	4r	.
=59	=59	=59	=59	=59
!	!	!LO:TX:t=P:problem= glissando do 4B	!	!
4E/	2AA\	8.a/L]	2.cn\	<
.	.	16g/Jk	.	.
4D#X/	.	8.g/L	.	.
.	.	16f#/Jk	.	.
4E/	4GG\	8.g/L	.	.
.	.	16a/Jk	.	.
4B/	4r	8.b/L	4r	.
.	.	16cc#X/Jk	.	.
*v	*v	*	*	*
*	*v	*v	*
=60	=60	=60
4r	4dd\	[ >
4G#X'\ 4d 4fn	8.cc#\L	.
.	16b\Jk	.
(4Gn\ 4A 4e	[2a/	]]
4c#\)	.	.
!LO:LB:g=original	!	!
=61	=61	=61
4F#'\ 4A 4d	(8.a/L]	.
.	16a/Jk	.
4A^\	8.dd\L	.
.	16cc#\Jk	.
4G'\ 4A 4e	8.ee\L	.
.	16b\Jk	.
4A^\	[4cc#\)	.
=62	=62	=62
4F#'\ 4A 4d	(8.cc#\L]	.
.	16a\Jk	.
4A^\	8.dd\L	.
.	16cc#\Jk	.
4G'\ 4A 4e	8.ee\L	.
.	16b\Jk	.
4A^\	[4cc#\)	.
=63	=63	=63
!	!	!LO:DY:a
(4F#\ 4A 4d	(8.cc#\L]	<
.	16a\Jk	.
8.c#\L	8.cc#\L	.
16d\Jk)	16dd\Jk)	.
(8.d\L	(8.dd/L	.
16F#\Jk	16f#/Jk	.
8.A\L	8.a/L	.
16B\Jk)	16b/Jk)	[[
=64	=64	=64
!	!	!LO:DY:a
(4B\	(4b/	>
12A\L	12a/L	.
12B\	12b/	.
12A\J)	12a/J)	.
4G'\	4g'/	.
4BB'\ 4G	4B'/ 4d#X 4f#	]
=65	=65	=65
2EE/ 2E	4r	.
.	2B/ 2e 2g	.
2EE/ 2E	.	.
.	4B/ 4e [4g	.
!LO:LB:g=original	!	!
=66	=66	=66
*^	*^	*
4E/	2AA\	8.g/L]	2cn\	.
.	.	16g/Jk	.	.
4D#X/	.	8.g/L	.	.
.	.	16f#/Jk	.	.
4E/	4GG\	8.g/L	2r	.
.	.	16a/Jk	.	.
4B/	4r	[4b/	.	.
=67	=67	=67	=67	=67
4G/	2Cn\	8.b/L]	2d\	<
.	.	16a/Jk	.	.
4F#/	.	8.a/L	.	.
.	.	16a/Jk	.	.
4G^/	4BB\	4dd^/	4d\	[
4r	4ryy	8.cc#/L	4r	.
.	.	16b/Jk	.	.
*v	*v	*	*	*
*	*v	*v	*
=68	=68	=68
!	!	!LO:DY:t
4C#X\ 4G	8.e/L 8.b	<
.	16a/Jk	.
8.c#\L	8.cc#\L	.
16e\Jk	16ee\Jk	.
2A^\ 2c# 2g	4a^\ 4cc# 4gg	.
.	8.ff#\L	.
.	16ee\Jk	[[
*clefG2	*	*
=69	=69	=69
4d'/ 4f# 4a	(4dd\ [4aa	f
4f#'/ 4a	8.aa\L]	.
.	16dd\Jk)	.
4g'/ 4a	([4cc#\	.
4e'/ 4g 4a	8.cc#\L]	.
.	16bb\Jk)	.
!LO:LB:g=original	!	!
=70	=70	=70
4d'/ 4f# 4a	(4dd\ [4aa	.
4f#'/ 4a	8.aa\L]	.
.	16ff#\Jk)	.
4g'/ 4a	([4ee\	.
4e'/ 4g 4a	8.ee\L]	.
.	16bb\Jk)	.
=71	=71	=71
4f#/ 4a	4dd'\ 4aa	.
!	!LO:TX:b:t=sempre marcato	!
4g/ 4b	2dd^\ 2ddd	.
4f#/ 4a	.	.
4e/ 4g	[4a^\ [4aa	.
=72	=72	=72
4d/ 4f#	4a\] 4aa]	.
4cc#\ 4ee	2ff#^\ 2fff#	.
4b\ 4dd	.	.
4a\ 4cc#	[4dd^\ [4ddd	.
=73	=73	=73
4g/ 4b	4dd\] 4ddd]	.
*	*8va	*
4ff#\ 4aa	2bb^\ 2bbb	.
4ee\ 4gg	.	.
4dd\ 4ff#	[4gg^\ [4ggg	.
=74	=74	=74
4cc#\ 4ee	4gg\] 4ggg]	.
*	*X8va	*
4b\ 4dd	2ee^\ 2eee	.
4a\ 4cc#	.	.
4g/ 4b	[4ee^\ [4eee	.
!LO:LB:g=original	!	!
=75	=75	=75
4f#/ 4a	4ee\] 4eee]	.
4g^/ 4a	4ee^\ 4aa	.
4f#^/ 4a	4dd^\ 4aa 4ddd	.
4g^/ 4a	4ee^\ 4aa 4eee	.
=76	=76	=76
4f#^/ 4a	4dd^\ 4aa 4ddd	.
4g^/ 4a	4ee^\ 4aa	.
4f#^/ 4a	4dd^\ 4aa 4ddd	.
4g^/ 4a	4ee^\ 4aa 4eee	.
=77	=77	=77
4f#/ 4a	4dd\ 4aa 4ddd	.
8e'/L	2dd^\ 2gg 2bb	.
8f#'/J	.	.
8g'/L	.	.
8a'/	.	.
8g'/	[4dd\ [4gg [4bb	.
8f#'/J	.	.
=78	=78	=78
8e'/L	4dd\] 4gg] 4bb]	.
8d'/	.	.
8c#'/	2a^\ 2ee 2gg	.
8B'/J	.	.
8c#'/L	.	.
8A'/	.	.
8B'/	4a\ 4ee 4gg	.
8c#'/J	.	.
!LO:LB:g=original	!	!
=79	=79	=79
4d'/	4a'\ 4dd 4ff#	.
*clefF4	*	*
!	!LO:TX:b:t=marcato	!
4G\ 4A	4e/ 4a	.
4F#\ 4A	4d/ 4a 4dd	.
4G\ 4A	4e/ 4a 4ee	.
=80	=80	=80
4F#\ 4A	4d/ 4a 4dd	.
4G\ 4A	4e/ 4a	.
4F#\ 4A	4d/ 4a 4dd	.
4G\ 4A	4e/ 4a 4ee	.
=81	=81	=81
4F#\ 4A	4d/ 4a 4dd	.
!	!	!LO:HP:t=dim.
8E'\L	2d^/ 2g 2b	>
8F#'\J	.	.
8G'\L	.	.
8A'\	.	.
8G'\	[4d/ [4g [4b	.
8F#'\J	.	.
=82	=82	=82
8E'/L	4d/] 4g] 4b]	.
8D'/	.	.
8C#'/	2A^/ 2e 2g	.
8BB'/J	.	.
8C#'/L	.	.
8AA'/	.	.
8BB'/	4A/ 4e 4g	.
8C#'/J	.	.
!LO:LB:g=original	!	!
=83	=83	=83
8D'/L	4A/ 4d 4f#	p
8C#'/	.	.
8BB'/	2A^/ 2e 2g	.
8AA'/J	.	.
8BB'/L	.	.
8AA'/	.	.
8BB'/	4A/ 4e 4g	.
8C#'/J	.	.
=84	=84	=84
8D'/L	4A/ 4d 4f#	.
8C#'/	.	.
8BB'/	2A^/ 2e 2g	.
8AA'/J	.	.
8BB'/L	.	.
8AA'/	.	.
8BB'/	4A/ 4e 4g	.
8C#'/J	.	.
=85	=85	=85
8D'/L	1A 1d 1f#	<
8C#'/	.	.
8BB'/	.	.
8AA'/J	.	.
8D'/L	.	.
8C#'/	.	.
8BB'/	.	.
8AA'/J	.	.
=86	=86	=86
8D'/L	2a\ 2dd 2ff#	.
8C#'/	.	.
8BB'/	.	.
8AA'/J	.	.
8D'/L	2dd\ 2ff# 2aa	[[
8C#'/	.	.
8BB'/	.	.
8AA'/J	.	.
=87	=87	=87
1DD'^ 1D	1dd^ 1ff# 1aa 1ddd	f
==	==	==
*-	*-	*-
!!!system-decoration: {(s1,s2)}
!!!RDF**kern: < = above
!!!RDF**kern: > = below
!!!ENC: Andrzej Gręziak
!!!END: 2022-02-09
!!!ENC: Natalia Wrzos
!!!END: 2022-02-15
